frontend/public/svg/interface/flip.svg

<svg width="158" height="156" viewBox="0 0 158 156" fill="none" xmlns="http://www.w3.org/2000/svg">
<g clip-path="url(#clip0)">
<path d="M148.569 103.397C145.114 96.8778 141.539 90.1373 138.1 83.4702L136.696 80.7519C132.555 72.7374 128.272 64.4499 124.516 56.1039C119.018 43.8911 112.003 32.6208 106.506 24.1669C104.62 21.2672 102.548 20.2636 99.9838 21.0137C97.4193 21.7638 96.3371 23.5402 96.2573 27.1445C96.2502 27.4695 96.2502 27.7945 96.2502 28.1592V65.8591C96.0977 65.891 95.9615 65.9748 95.8648 66.0964C95.7675 66.2186 95.7163 66.37 95.7195 66.526C95.7876 69.8248 95.8486 73.1229 95.9018 76.4216C96.0316 83.9915 96.1684 91.8195 96.4383 99.5168C96.585 103.681 96.8672 107.906 97.1403 111.992C97.392 115.754 97.6522 119.645 97.8046 123.473C97.9993 128.306 99.5563 130.382 104.482 132.359C105.624 132.808 106.841 133.039 108.069 133.039C108.157 133.039 108.245 133.039 108.333 133.039C112.999 132.909 117.666 132.749 122.332 132.59C129.62 132.343 137.157 132.088 144.569 131.94C149.285 131.847 152.522 129.299 155.694 126.468C156.467 125.79 157.023 124.899 157.293 123.905C157.561 122.912 157.531 121.861 157.206 120.885C156.759 119.359 156.176 117.875 155.463 116.454C153.18 112.094 150.882 107.743 148.569 103.397ZM144.822 121.293L109.205 123.854C107.726 107.78 107.374 91.5172 107.035 75.7827C106.794 64.6677 106.547 53.2062 105.902 41.8715C105.974 42.0015 106.044 42.1368 106.11 42.272C106.804 43.6812 107.519 45.0812 108.234 46.4826C109.958 49.8626 111.741 53.3512 113.171 56.9002C118.167 69.2963 124.366 81.3298 130.36 92.9674C131.736 95.6376 133.108 98.3104 134.474 100.986C136.032 104.041 137.644 107.126 139.205 110.111C140.395 112.387 141.581 114.665 142.761 116.946C143.29 117.974 143.774 119.022 144.334 120.237C144.49 120.576 144.652 120.928 144.822 121.293Z" fill="black"/>
<path d="M7.34575 131.061C7.51768 131.066 7.68966 131.065 7.86483 131.065H8.0348L19.2909 131.074C26.7559 131.08 34.2208 131.085 41.6859 131.087C46.0131 131.087 50.3403 131.084 54.6676 131.079C57.1327 131.093 59.5971 130.98 62.0506 130.74C65.4118 130.39 66.8853 128.928 67.3057 125.523C67.344 125.211 67.3881 124.898 67.4355 124.586C67.5886 123.664 67.6749 122.732 67.695 121.797C67.682 117.407 67.6541 113.017 67.6126 108.628C67.5827 104.906 67.5581 101.184 67.538 97.4616C67.5179 92.8343 67.5224 88.2057 67.5276 83.5776L67.5315 77.4677C68.092 61.6681 67.5549 46.0318 66.5752 27.4177C66.4902 25.8148 66.3748 23.6204 64.2148 22.57C62.3548 21.6652 60.3489 22.0825 58.5635 23.7465C56.8603 25.2476 55.3385 26.9436 54.0292 28.7996C53.4103 29.7374 52.7897 30.6744 52.1672 31.6109C48.6639 36.8921 45.0414 42.3528 41.8702 47.959C33.3403 63.039 24.7987 78.5493 16.4842 94.0563C12.3814 101.709 8.48699 109.631 4.7216 117.293C3.84794 119.069 2.97308 120.846 2.09726 122.623C0.633653 125.587 1.08466 127.475 1.72045 128.538C2.64883 130.101 4.59763 130.975 7.34575 131.061ZM12.5665 121.018L58.2079 42.2813L56.2071 121.567C48.3643 121.912 40.6636 121.647 32.523 121.366C27.1642 121.181 21.6645 120.991 16.0859 120.991C14.9168 120.991 13.7437 121 12.5665 121.018Z" fill="black"/>
<path d="M75.6922 99.3112C75.2997 114.532 74.9423 130.359 74.6289 146.354C74.5816 148.089 74.8067 149.821 75.2971 151.485C75.6079 152.601 76.2755 153.582 77.1987 154.28C78.1212 154.977 79.2474 155.351 80.4029 155.344C80.4879 155.347 80.5722 155.348 80.6559 155.348C81.7659 155.392 82.861 155.075 83.7764 154.444C84.6925 153.814 85.3802 152.904 85.7376 151.849C86.2742 150.436 86.5765 148.945 86.631 147.433L86.6394 147.108C86.8619 138.138 87.0935 128.858 87.1338 119.727C87.3135 80.6185 87.4205 42.2827 87.501 9.94195C87.5133 7.89509 87.3174 5.85222 86.9171 3.84497C86.7452 2.8047 86.2145 1.85784 85.4172 1.16975C84.6198 0.48166 83.6065 0.0960565 82.5542 0.0801731C81.5084 0.0224377 80.4742 0.326771 79.6257 0.942188C78.7771 1.5576 78.166 2.44663 77.8941 3.46014C77.4789 4.90459 77.2506 6.39632 77.2136 7.89899L77.1052 12.2709C76.8788 21.3377 76.6453 30.712 76.5642 39.9368C76.487 48.7424 76.5058 57.3958 76.5239 65.7647C76.5317 69.1726 76.5389 72.4798 76.5389 75.6447C76.4331 78.5593 76.3261 81.2997 76.2242 83.9211C76.0166 89.2843 75.82 94.3497 75.6922 99.3112Z" fill="black"/>
</g>
<defs>
<clipPath id="clip0">
<rect width="157" height="156" fill="white" transform="translate(0.777344)"/>
</clipPath>
</defs>
</svg>

<svg xmlns="http://www.w3.org/2000/svg" width="158" height="156" fill="none" viewBox="0 0 158 156"><g fill="#000" clip-path="url(#a)"><path d="M148.569 103.397c-3.455-6.52-7.03-13.26-10.469-19.927l-1.404-2.718c-4.141-8.015-8.424-16.302-12.18-24.648-5.498-12.213-12.513-23.483-18.01-31.937-1.886-2.9-3.958-3.903-6.522-3.153s-3.647 2.526-3.727 6.13c-.007.326-.007.65-.007 1.015v37.7a.666.666 0 0 0-.53.667q.102 4.948.182 9.896c.13 7.57.266 15.398.536 23.095.147 4.164.43 8.389.702 12.475.252 3.762.512 7.653.665 11.481.194 4.833 1.751 6.909 6.677 8.886a9.8 9.8 0 0 0 3.587.68h.264c4.666-.13 9.333-.29 13.999-.449 7.288-.247 14.825-.502 22.237-.65 4.716-.093 7.953-2.641 11.125-5.472a5.23 5.23 0 0 0 1.512-5.583 26.5 26.5 0 0 0-1.743-4.431q-3.424-6.539-6.894-13.057m-3.747 17.896-35.617 2.561c-1.479-16.074-1.831-32.337-2.17-48.071-.241-11.115-.488-22.577-1.133-33.912q.109.197.208.401c.694 1.41 1.409 2.81 2.124 4.21 1.724 3.38 3.507 6.87 4.937 10.418 4.996 12.396 11.195 24.43 17.189 36.067q2.065 4.005 4.114 8.019c1.558 3.055 3.17 6.14 4.731 9.125q1.785 3.414 3.556 6.835c.529 1.028 1.013 2.076 1.573 3.291q.233.508.488 1.056M7.346 131.061q.257.006.519.004h.17l11.256.009q11.197.01 22.395.013 6.49 0 12.982-.008c2.465.014 4.93-.099 7.383-.339 3.36-.35 4.834-1.812 5.255-5.217q.057-.469.13-.937.23-1.385.259-2.789-.02-6.585-.082-13.169-.045-5.583-.075-11.166c-.02-4.628-.016-9.256-.01-13.884l.003-6.11c.561-15.8.024-31.436-.956-50.05-.085-1.603-.2-3.798-2.36-4.848-1.86-.905-3.866-.488-5.652 1.177A29 29 0 0 0 54.03 28.8q-.929 1.406-1.862 2.81c-3.503 5.282-7.126 10.743-10.297 16.349a2339 2339 0 0 0-25.386 46.097c-4.103 7.653-7.997 15.575-11.762 23.237l-2.625 5.33c-1.463 2.964-1.012 4.852-.377 5.915.929 1.563 2.878 2.437 5.626 2.523m5.22-10.043 45.642-78.737-2 79.286c-7.844.345-15.544.08-23.685-.201-5.359-.185-10.859-.375-16.437-.375q-1.754 0-3.52.027m63.125-21.707c-.392 15.221-.75 31.048-1.063 47.043a16.6 16.6 0 0 0 .668 5.131 5.26 5.26 0 0 0 5.106 3.859q.128.004.253.004a5.16 5.16 0 0 0 5.082-3.499 13.8 13.8 0 0 0 .893-4.416l.008-.325c.223-8.97.455-18.25.495-27.381.18-39.109.287-77.444.367-109.785a30.3 30.3 0 0 0-.584-6.097 4.5 4.5 0 0 0-1.5-2.675A4.5 4.5 0 0 0 82.554.08a4.56 4.56 0 0 0-2.928.862 4.57 4.57 0 0 0-1.732 2.518 17.6 17.6 0 0 0-.68 4.439l-.109 4.372c-.226 9.067-.46 18.441-.54 27.666-.078 8.805-.06 17.459-.041 25.828.008 3.408.015 6.715.015 9.88-.106 2.914-.213 5.655-.315 8.276-.207 5.363-.404 10.429-.532 15.39"/></g><defs><clipPath id="a"><path fill="#fff" d="M.777 0h157v156h-157z"/></clipPath></defs></svg>
